X:1
T:정주나요
T:정주나요
T:글리 정말 10조! (소프라노 Pt)
%%score 1 2
L:1/8
Q:3/8=66
M:6/8
K:F
V:1 treble-8 nm="Classical Guitar" snm="Guit."
V:2 perc nm="드럼세트" snm="D. Set"
K:none
I:percmap ^g g 42 x
V:1
 AAA A z z | AAA A z z | BBB B z z | (A2 c2 d2) | AAA A z z | AAA A z z | BBB B z z | (A2 c2 d2) | %8
w: 슈 비 루 밥|슈 비 루 밥|슈 비 루 밥|워 어 어|슈 비 루 밥|슈 비 루 밥|슈 비 루 밥|워 어 어|
 AAA A z z | AAA A z z | BBB B z z | (A2 c2 d2) | AAA A z z | AAA A z z | BBB B z z | (A3 G3) | %16
w: 슈 비 루 밥|슈 비 루 밥|슈 비 루 밥|워 어 어|슈 비 루 밥|슈 비 루 밥|슈 비 루 밥|아- *|
 (A6 | A6) | ((G6 | G3) _G3) | (F6 | A3 G3) | (F6 | B6- | B3) z z2 | z6 || %26
w: 아-||아-||흠||흠||||
[K:Ab][M:4/4][Q:1/4=138] z8 | c2 cc BAAF | A2 A2 B2 AB | c2 cc ecBA | A2 c2 B2 z2 | c2 f2 e2 c2 | %32
w: |첫 눈 에 반 해 버 린|그 대 여 나 를|첫 눈 에 사 로 잡 은|그 대 여|내 마 음 을|
 B2 A2 B2 c2 | A8 | z FFF (3A2 B2 c2 ||[K:F] (B3 c/B/) _A4- | A4 z4 || _A2 A2 A A2 A- | %38
w: 받 아 준 다|면|후 회 하 진 않 을|거 어 어 야-||정 주 나 요 안-|
 A _A2 B c2 B2 | _A2 A2 A A2 A- | A _d2 c B2 z2 | _A2 A2 A A2 A- | A _A2 B c2 B2 | _A8- | %44
w: * 정 주 나 요|늘 정 주 는 날-|* 알 아 줘|정 주 나 요 안-|* 정 주 나 요|아-|
 A4 B2 B2 ||[K:F] z2 FF- FFEE | E2 DE- E F3 | z2 BB- BB A2 | G2 GA- AG F2 | z FFF FFEE | %50
w: * 후 후|내 눈- * 속 엔 너|밖 에 없- * 어|보 기- * 보 다|착 한 순- * 정 남|사 랑 하 나 만 믿 고|
 (ED)DE- E F3 | z BBB BB A2 | G2 GA- AG F2 | z8 | z8 | z8 | z8 | z8 | z8 | z8 | z8 || %61
w: 살- * 아 왔- * 어|생 각 보 다 는 자|상 한 다- * 정 남|||||||||
 c3 c B_A z B | c2 cc B_A z2 | c2 cc B_AAF | ._A2 A2 B4 | _c3 c B _A2 A | _c2 cc B _A2 B | z8 | %68
w: 오 my ba be *|해 치 지 않 아|겁 내 지 말 고 내 게|다 가 와|이 래 뵈 도 나|귀 여 운 남 자 야||
 _e2 _d2 c2 B2 | c2 cc B_AAF | _A2 A2 B2 AB | c2 cc _ecB_A | _A2 c2 B2 z2 | c2 f2 _e2 c2 | %74
w: 예 예 예 예|한 떨 기 장 미 같 은|그 대 여 내 게|한 뿌 리 산 삼 같 은|그 대 여|내 마 음 을|
 B2 _A2 B2 c2 | _A8 | z FFF (3_A2 B2 c2 | (B3 c/B/) _A4- | A4 z4 ||[K:F] z8 | z8 | z8 | z8 | z8 | %84
w: 받 아 준 다|면|후 회 하 진 않 을|거 어어 * 야|아||||||
 z8 | z8 | z8 | c3 c B_A z B | c2 cc B_A z2 | c2 cc B_AAF | ._A2 A2 B4 | _c3 c B _A2 A | %92
w: |||오 my ba be 널|놓 치 지 않 아|널 위 해 목 숨 바 칠|한 남 자|이 래 뵈 도 나|
 _c2 cc B _A2 B | z8 | _e2 _d2 c2 B2 | c2 cc B_AAF | _A2 A2 B2 AB | c2 cc _ecB_A | _A2 c2 B2 z2 | %99
w: 뜨 거 운 남 자 야||요 용 용 용|한 여 름 빙 수 같 은|그 대 여 내 게|한 겨 울 호 빵 같 은|그 대 여|
 c2 f2 _e2 c2 | B2 _A2 B2 c2 | _A8 | z FFF (3_A2 B2 c2 | (B3 c/B/) _A4- | A4 z4 | _A2 A2 A A2 A- | %106
w: 내 마 음 을|받 아 준 다|면|후 회 하 진 않 을|거 어어 * 야||정 주 나 요 안-|
 A _A2 B c2 B2 | _A2 A2 A A2 A- | A _d2 c B2 z2 | _A2 A2 A A2 A- | A _A2 B c2 B2 | _A8- | A4 z4 || %113
w: * 정 주 나 요|늘 정 주 는 날-|* 알 아 줘|정 주 나 요 안-|* 정 주 나 요|아||
[K:Bb] B2 B2 B B2 B- | B B2 c d2 c2 | B2 B2 B B2 B- | B e2 d c2 z2 | B2 B2 B B2 B- | B B2 c d2 c2 | %119
w: 정 주 나 요 안-|* 정 주 나 요|늘 정 주 는 날-|* 알 아 줘|정 주 나 요 안-|* 정 주 나 요|
 B8- | B4 z4 ||[K:C] c2 c2 c c2 c- | c c2 d e2 d2 | c2 c2 c c2 c- | c f2 e d2 z2 | c2 c2 c c2 c- | %126
w: 아||정 주 나 요 안-|* 정 주 나 요|늘 정 주 는 날-|* 알 아 줘|정 주 나 요 안-|
 c c2 d e2 d2 | c8- | c4 z4 ||[K:D] d2 d2 d d2 d- | d d2 e f2 e2 | d2 d2 d d2 d- | d g2 f e2 z2 | %133
w: * 정 주 나 요|아||정 주 나 요 안-|* 정 주 나 요|늘 정 주 는 날-|* 알 아 줘|
 d2 d2 d d2 d- | d d2 e f2 e2 | d8 | d4 d4 | d8- | d8- | d8 | z8 |] %141
w: 정 주 나 요 안-|* 정 주 나 요|날|알 아|줘||||
V:2
[K:C] z6 | z6 | z6 | z6 | z6 | z6 | z6 | z6 | z6 | z6 | z6 | z6 | z6 | z6 | z6 | z6 | z6 | z6 | %18
 z6 | z6 | z6 | z6 | z6 | z6 | z6 | z6 ||[M:4/4] z8 | z8 | z8 | z8 | z8 | z8 | z8 | z8 | z8 || z8 | %36
 z8 || z8 | z8 | z8 | z8 | z8 | z8 | z8 | z2 z2 ^g2 ^g2 || z8 | z8 | z8 | z8 | z8 | z8 | z8 | z8 | %53
 z8 | z8 | z8 | z8 | z8 | z8 | z8 | z8 || z8 | z8 | z8 | z8 | z8 | z8 | z8 | z8 | z8 | z8 | z8 | %72
 z8 | z8 | z8 | z8 | z8 | z8 | z8 || z8 | z8 | z8 | z8 | z8 | z8 | z8 | z8 | z8 | z8 | z8 | z8 | %91
 z8 | z8 | z8 | z8 | z8 | z8 | z8 | z8 | z8 | z8 | z8 | z8 | z8 | z8 | z8 | z8 | z8 | z8 | z8 | %110
 z8 | z8 | z8 || z8 | z8 | z8 | z8 | z8 | z8 | z8 | z8 || z8 | z8 | z8 | z8 | z8 | z8 | z8 | z8 || %129
 z8 | z8 | z8 | z8 | z8 | z8 | z8 | z8 | z8 | z8 | z8 | z8 |] %141

